!!!SOCIAL_FUNCTION:	miscellaneous songs
!!!PDT:	1957
!!!OTL: No_16_Deer_and_Antelope_Song.krn
!!!LING_GROUP: Keresan
!!!LANG: Tone
!!!REG: Southwest
**kern
*staff1
=1-
*clefF4
*k[f#c#]
*M2/4
8A\L
8A\J
8A\L
8A\J
=2
8A\L
8A\J
8A\L
8A\J
=3!|:
8B\L
8A\J
8B\L
8A\J
=4
8e\L
8e\J
4e\
=5
8e\L
16d\L
16B\JJ
4A\
=6
*M3/4
8r
8B\
4A\
8B\L
8A\J
=7
*M2/4
4.f#\
16e\LL
16f#\JJ
=8
2e\
=9
16d\LL
16e\
16d\
16B\JJ
4A\
=10
8e\L
8e\J
4e\
=11
16d\LL
16e\
16d\
16B\JJ
8A\L
8A\J
=12
*M3/4
(8d\L
8B\J)
8d\L
8B\J
8A\
8r
=13
*M2/4
4d\
8d\
8r
=14
8d\L
8A\J
4A\
=15
8G\
8r
8G\L
8A\J
=16
8A\L
8d\J
8A\L
8A\J
=17
16G\
16r
8A\
8A\L
8A\J
=18
4A\
8A\L
8A\J
=19
8A\L
8A\J
8A\L
8A\J
=20
=
*M3/4
4A\
4r
8A\L
8A\J
=21
4A\
4A\
4A\
=22:|!
*M2/4
4A\
4r
==
*-
